X:6
T: Ech ko'm de Muorgen do uowen durch' t Duorf, S. 29
N: S0069
O: Luxemburg
S: Die Bauernhochzeit in frheren Zeiten]
R: Brautlied]
M: 2/4
L: 1/8
K: F
C2 | C2F2 | F2FG | E2DE | G2
C2 | C2G2 | G2G2 | GGFG | A2
F2 | F2AB | c2cc | B2A2 | G2
AB | c2A2 | A2cB | A2G2 | F2
C2 | F2A2 | c2ff | d2d2 | c2
c2 | B2B2 | A2cB | A2G2 | F2
C2 | F2AF | c2Bc | d2ed | c2
c2 | B2cB | A2A2 | GFG2 | F2

